X: 123
T:Hora Nirkoda
C:Mark Lavry 1958
O:Israel
I:Dance taught by Yo'av Ashriel
D: Debka Israeli Folk Dances (Tikva Records T-100)
F: http://www.youtube.com/watch?v=sgc4YaTWTUY
F: http://www.youtube.com/watch?v=vC5aaR2Gmig
L:1/8
M:2/4
Q:1/4=160
K:Am
  a>b g>a         |^fgfe             |e>^f ga         | g2 g2          |\
  "Dm".A2 z2      | A>A "Am"c/B/A    | "Dm"A2 z2      | A>A "G"G2      |
  "Dm".A2 z2      | A>A A2           | .A.B"Am".c.d   | "Dm"BA "G"B/A/G|\
  "Dm".A2 z2      | A>A "Am"c/B/A    | "Dm"A2 z2      | A>A "G"G2      |
  "Dm"A2 z2       | A>A A2           |.A.G"Am".c.B    | "Dm".A2 .A2    |\
  "Am".E.F"Dm".D.E| "Am".C.D "Gm"_B,2| "Am"CD_B,C     |"Dm"A,_B, "Am"C2|
  "Am".E.F"Dm".D.E| "Am".C.D "Gm"_B,2| "Am"E2 "Dm"F2  |"G"G2 "Dm"A2    |\
  .D2 z2          | D>D "Am".C2      | "Dm"D2 z2      |D>D F2          |
  .D2 z2          | D>D "Am".C2      | "Dm"GFGA       | "G"B2 "G"B2    |\
|:"Dm"A d2 A      | dd "Am"c2        | "Dm"A d2 A     | dd "Am"c2      | "Dm"A d2 A| dd "Am"c2|
  [1 "Dm"AB"Am"cd |"Dm"BA "G"B/A/G   :|[2 "Dm"AG"Am"cB|"Dm"A2 A2       |



